X:5
T:Tha Major    
O:No 5  Page 2 William Clarke of Feltwell   MS 1858
M:6/8
L:1/8
K:C
BAG GAG|dBG ABc|BAG GAG|cAF Bcd:|
|:B2d ded|def gfg|B2d def|ecA ABc:|
|:BAG g3|dBG ABc|BAG fef|cAF ABc:|

